Numix-GalliumOS/16/mimetypes/application-users.svg

<?xml version="1.0" encoding="UTF-8" standalone="no"?>
<svg
   xmlns:dc="http://purl.org/dc/elements/1.1/"
   xmlns:cc="http://creativecommons.org/ns#"
   xmlns:rdf="http://www.w3.org/1999/02/22-rdf-syntax-ns#"
   xmlns:svg="http://www.w3.org/2000/svg"
   xmlns="http://www.w3.org/2000/svg"
   xmlns:sodipodi="http://sodipodi.sourceforge.net/DTD/sodipodi-0.dtd"
   xmlns:inkscape="http://www.inkscape.org/namespaces/inkscape"
   width="16"
   height="16"
   viewBox="0 0 16 16"
   id="svg2"
   version="1.1"
   inkscape:version="0.48.5 r10040"
   sodipodi:docname="application-users.svg">
  <metadata
     id="metadata16">
    <rdf:RDF>
      <cc:Work
         rdf:about="">
        <dc:format>image/svg+xml</dc:format>
        <dc:type
           rdf:resource="http://purl.org/dc/dcmitype/StillImage" />
      </cc:Work>
    </rdf:RDF>
  </metadata>
  <defs
     id="defs14" />
  <sodipodi:namedview
     pagecolor="#ffffff"
     bordercolor="#666666"
     borderopacity="1"
     objecttolerance="10"
     gridtolerance="10"
     guidetolerance="10"
     inkscape:pageopacity="0"
     inkscape:pageshadow="2"
     inkscape:window-width="1280"
     inkscape:window-height="970"
     id="namedview12"
     showgrid="true"
     inkscape:zoom="59"
     inkscape:cx="9.9966779"
     inkscape:cy="7.3102679"
     inkscape:window-x="0"
     inkscape:window-y="0"
     inkscape:window-maximized="1"
     inkscape:current-layer="svg2">
    <inkscape:grid
       type="xygrid"
       id="grid3004" />
  </sodipodi:namedview>
  <path
     style="fill:#6b7daa"
     d="m 23.888308,2.5015225 c -0.34375,0 -0.667969,0.324219 -0.667969,0.667969 l 0,14.0000005 c 0,0.324219 0.34375,0.667969 0.667969,0.667969 l 10.664062,0 c 0.324219,0 0.667969,-0.34375 0.667969,-0.667969 l 0,-10.3320315 -4.332031,-4.335938 z"
     id="path4"
     inkscape:connector-curvature="0" />
  <path
     style="fill:#6b7daa;fill-opacity:1"
     d="M 2.667969,-4.457e-4 C 2.324219,-4.457e-4 2,0.3378123 2,0.696447 L 2,15.303108 C 2,15.641365 2.34375,16 2.667969,16 l 10.664062,0 C 13.65625,16 14,15.641365 14,15.303108 L 14,3.9995541 10,-4.457e-4 z"
     id="path4-6"
     inkscape:connector-curvature="0"
     sodipodi:nodetypes="ssssssccs" />
  <path
     style="fill:#000000;fill-opacity:0.19599998"
     d="m 10.583223,3.3315851 0.0154,0.01953 0.04005,-0.01953 z m 0.02978,0.667969 3.387,3.664062 0,-3.664062 z"
     id="path6"
     inkscape:connector-curvature="0"
     sodipodi:nodetypes="cccccccc" />
  <path
     style="fill:#ffffff;fill-opacity:0.39200003"
     d="m 10,-4.457e-4 3.996396,3.9999998 -3.383784,0 C 10.313513,3.9995541 10,3.6824371 10,3.3833381 z"
     id="path8"
     inkscape:connector-curvature="0"
     sodipodi:nodetypes="ccssc" />
  <path
     style="fill:#ffffff"
     d="m 9.3317703,5.5990615 0.8909727,0 c 1.33646,0 1.33646,1.373974 1.33646,1.373974 l 0,1.3552179 c 0,0.4595539 -0.890973,1.3880423 -0.890973,1.3880423 l 0,0.4548653 L 12,11.085579 12,12 l -4.8909737,0 0,-0.914421 1.7819474,-0.914418 0,-0.4548653 c 0,0 -0.8956627,-0.9284884 -0.8909737,-1.3880423 L 8,6.9730355 c 0,0 0,-1.373974 1.3317703,-1.373974 z m -3.1090275,0.91442 0.8862835,0 0,1.8147719 C 7.1090263,8.7878073 8,9.7162957 8,9.7162957 l -1.7772572,0.9144193 0,0.91442 L 4,11.531066 l 0,-0.459554 1.7772572,-0.900351 0,-0.4548653 c 0,0 -0.8909737,-0.9284884 -0.8909737,-1.3880423 l 0,-0.4407978 c 0,-1.3739741 1.3364593,-1.3739741 1.3364593,-1.3739741 z"
     id="path10"
     inkscape:connector-curvature="0" />
</svg>

<svg xmlns="http://www.w3.org/2000/svg" viewBox="0 0 16 16">
 <path d="m 2.668 0 c -0.344 0 -0.668 0.338 -0.668 0.697 l 0 14.607 c 0 0.338 0.344 0.697 0.668 0.697 l 10.664 0 c 0.324 0 0.668 -0.359 0.668 -0.697 l 0 -11.304 -4 -4 z" style="fill:#6b7daa;fill-opacity:1"/>
 <path d="m 10.583 3.332 0.015 0.02 0.04 -0.02 z m 0.03 0.668 3.387 3.664 0 -3.664 z" style="fill:#000;fill-opacity:0.196"/>
 <path d="m 10 0 3.996 4 -3.384 0 c -0.299 0 -0.613 -0.317 -0.613 -0.616 z" style="fill:#fff;fill-opacity:0.392"/>
 <path d="m 9.332 5.599 0.891 0 c 1.336 0 1.336 1.374 1.336 1.374 l 0 1.355 c 0 0.46 -0.891 1.388 -0.891 1.388 l 0 0.455 l 1.332 0.914 0 0.914 l -4.891 0 0 -0.914 1.782 -0.914 0 -0.455 c 0 0 -0.896 -0.928 -0.891 -1.388 l 0 -1.355 c 0 0 0 -1.374 1.332 -1.374 z m -3.109 0.914 0.886 0 0 1.815 c 0 0.46 0.891 1.388 0.891 1.388 l -1.777 0.914 0 0.914 l -2.223 -0.014 l 0 -0.46 1.777 -0.9 0 -0.455 c 0 0 -0.891 -0.928 -0.891 -1.388 l 0 -0.441 c 0 -1.374 1.336 -1.374 1.336 -1.374 z" style="fill:#fff"/>
</svg>
